src/img/icons/microphone-stand.svg

<svg fill="none" height="21" viewBox="0 0 22 21" width="22" xmlns="http://www.w3.org/2000/svg"><path d="m12.2891 2.88281c-.9375.9375-1.3282 2.1875-1.2891 3.39844l4.2188 4.21875c1.2109.0781 2.4609-.3516 3.3984-1.28906l.0781-.07813-6.3281-6.32812zm-11.05472 14.17969c-.351568.3906-.351568 1.0156.03906 1.4063l1.75781 1.7578c.39063.3906 1.01563.3906 1.40625.039l5.27344-4.6875v4.2969c.03906.3516.31246.625.66406.625h1.2109c.3516 0 .6641-.2734.6641-.625v-6.4844l2.1875-1.9531-4.375-4.375zm18.43752-15.23438c-1.7578-1.7578075-4.5703-1.7578075-6.3281 0l-.0782.07813 6.3282 6.32813.0781-.07813c1.7578-1.75781 1.7578-4.57031 0-6.32813z" fill="#fff"/></svg>

<svg width="22" height="21" viewBox="0 0 22 21" fill="none" xmlns="http://www.w3.org/2000/svg">
<path d="M12.2891 2.88281C11.3516 3.82031 10.9609 5.07031 11 6.28125L15.2188 10.5C16.4297 10.5781 17.6797 10.1484 18.6172 9.21094L18.6953 9.13281L12.3672 2.80469L12.2891 2.88281ZM1.23438 17.0625C0.882812 17.4531 0.882812 18.0781 1.27344 18.4688L3.03125 20.2266C3.42188 20.6172 4.04688 20.6172 4.4375 20.2656L9.71094 15.5781V19.875C9.75 20.2266 10.0234 20.5 10.375 20.5H11.5859C11.9375 20.5 12.25 20.2266 12.25 19.875V13.3906L14.4375 11.4375L10.0625 7.0625L1.23438 17.0625ZM19.6719 1.82812C17.9141 0.0703125 15.1016 0.0703125 13.3438 1.82812L13.2656 1.90625L19.5938 8.23438L19.6719 8.15625C21.4297 6.39844 21.4297 3.58594 19.6719 1.82812Z" fill="white"/>
</svg>
